site/assets/data/sponsr/sponsr-xx.svg

<svg width="134" height="136" viewBox="0 0 134 136" fill="none" xmlns="http://www.w3.org/2000/svg">
<path d="M54.0901 1.41605C40.0901 4.51605 28.8901 10.6161 19.1901 20.4161C-3.60991 43.6161 -6.40991 79.816 12.4901 107.316C17.4901 114.616 27.9901 123.416 36.8901 127.816C47.2901 132.916 55.6901 134.916 67.1901 134.916C106.09 134.916 136.19 103.416 134.39 64.4161C133.19 39.6161 119.29 18.3161 97.0901 7.31605C82.8901 0.316054 68.1901 -1.68395 54.0901 1.41605Z" fill="#EBEBEA"/>
<path d="M5.3369 92.6166C3.35281 93.4166 10.4955 106.017 17.2414 113.317C48.8876 148.217 105.236 141.217 127.16 99.7166C128.846 96.5166 129.938 93.4166 129.64 92.9166C129.045 91.9166 7.91621 91.6166 5.3369 92.6166Z" fill="#19191B"/>
</svg>

<svg width="134" height="136" fill="none" xmlns="http://www.w3.org/2000/svg"><path d="M54.09 1.416c-14 3.1-25.2 9.2-34.9 19-22.8 23.2-25.6 59.4-6.7 86.9 5 7.3 15.5 16.1 24.4 20.5 10.4 5.1 18.8 7.1 30.3 7.1 38.9 0 69-31.5 67.2-70.5-1.2-24.8-15.1-46.1-37.3-57.1-14.2-7-28.9-9-43-5.9z" fill="#EBEBEA"/><path d="M5.337 92.617c-1.984.8 5.159 13.4 11.904 20.7 31.647 34.9 87.995 27.9 109.919-13.6 1.686-3.2 2.778-6.3 2.48-6.8-.595-1-121.724-1.3-124.303-.3z" fill="#19191B"/></svg>
